svgs/thin/siren-on.svg

<svg xmlns="http://www.w3.org/2000/svg" viewBox="0 0 640 512"><!--! Font Awesome Pro 6.3.0 by @fontawesome - https://fontawesome.com License - https://fontawesome.com/license (Commercial License) Copyright 2023 Fonticons, Inc. --><path d="M239.9 157.3l-23.88 193.8c-.5313 4.375 2.562 8.375 6.969 8.906C223.3 359.1 223.7 360 224 360c4 0 7.438-2.969 7.938-7.031l23.88-193.8c.5313-4.375-2.562-8.375-6.969-8.906C244.5 149.8 240.5 152.9 239.9 157.3zM151 359.9c4.375 .3125 8.375-2.594 8.906-6.969l23.88-193.8C187.1 132.3 209.8 112 236.5 112h167.1c26.72 0 49.34 20.31 52.66 47.22l23.88 193.8C480.6 357 484 360 488 360c.3125 0 .6562-.0313 .9687-.0625c4.406-.5313 7.5-4.531 6.969-8.906l-23.88-193.8C467.8 122.3 438.3 96 403.5 96H236.5C201.7 96 172.2 122.3 167.9 157.3l-23.88 193.8C143.5 355.4 146.6 359.4 151 359.9zM512 384H128c-17.67 0-32 14.33-32 32v32c0 17.67 14.33 32 32 32h384c17.67 0 32-14.33 32-32v-32C544 398.3 529.7 384 512 384zM528 448c0 8.822-7.178 16-16 16H128c-8.822 0-16-7.178-16-16v-32c0-8.822 7.178-16 16-16h384c8.822 0 16 7.178 16 16V448zM520 95.97c1.406 0 2.828-.375 4.109-1.125l79.1-48c3.797-2.281 5.031-7.188 2.75-11c-2.266-3.781-7.203-4.938-10.97-2.75l-79.1 48c-3.797 2.281-5.031 7.188-2.75 11C514.6 94.6 517.3 95.97 520 95.97zM632 215.1h-79.1c-4.422 0-8 3.594-8 8s3.578 8 8 8H632c4.422 0 8-3.474 8-7.88S636.4 215.1 632 215.1zM87.1 215.1H8c-4.422 0-8 3.713-8 8.12s3.578 7.88 8 7.88h79.1c4.422 0 8-3.594 8-8S92.42 215.1 87.1 215.1zM115.9 94.85c1.281 .75 2.703 1.125 4.109 1.125c2.703 0 5.359-1.375 6.859-3.875c2.281-3.812 1.047-8.719-2.75-11l-79.1-48C40.34 30.91 35.4 32.07 33.14 35.85c-2.281 3.812-1.047 8.719 2.75 11L115.9 94.85z"/></svg>

<svg xmlns="http://www.w3.org/2000/svg" viewBox="0 0 640 512"><!-- Font Awesome Pro 6.0.0-alpha2 by @fontawesome - https://fontawesome.com License - https://fontawesome.com/license (Commercial License) --><path d="M239.938 157.281L216.062 351.031C215.531 355.406 218.625 359.406 223.031 359.938C223.344 359.969 223.688 360 224 360C228 360 231.438 357.031 231.938 352.969L255.813 159.219C256.344 154.844 253.25 150.844 248.844 150.312C244.469 149.812 240.469 152.906 239.938 157.281ZM151.031 359.938C155.406 360.25 159.406 357.344 159.938 352.969L183.813 159.219C187.125 132.312 209.75 112 236.469 112H403.531C430.25 112 452.875 132.312 456.187 159.219L480.062 352.969C480.562 357.031 484 360 488 360C488.312 360 488.656 359.969 488.969 359.938C493.375 359.406 496.469 355.406 495.937 351.031L472.062 157.281C467.781 122.344 438.312 96 403.531 96H236.469C201.688 96 172.219 122.344 167.938 157.281L144.062 351.031C143.531 355.406 146.625 359.406 151.031 359.938ZM512 384H128C110.326 384 96 398.326 96 416V448C96 465.672 110.326 480 128 480H512C529.674 480 544 465.672 544 448V416C544 398.326 529.674 384 512 384ZM528 448C528 456.822 520.822 464 512 464H128C119.178 464 112 456.822 112 448V416C112 407.178 119.178 400 128 400H512C520.822 400 528 407.178 528 416V448ZM520.004 95.975C521.41 95.975 522.832 95.6 524.113 94.85L604.111 46.85C607.908 44.568 609.143 39.662 606.861 35.85C604.596 32.068 599.658 30.912 595.893 33.1L515.895 81.1C512.098 83.381 510.863 88.287 513.145 92.1C514.645 94.6 517.301 95.975 520.004 95.975ZM632 215.975H552.004C547.582 215.975 544.004 219.568 544.004 223.975S547.582 231.975 552.004 231.975H632C636.422 231.975 640 228.381 640 223.975S636.422 215.975 632 215.975ZM87.996 215.975H8C3.578 215.975 0 219.568 0 223.975S3.578 231.975 8 231.975H87.996C92.418 231.975 95.996 228.381 95.996 223.975S92.418 215.975 87.996 215.975ZM115.887 94.85C117.168 95.6 118.59 95.975 119.996 95.975C122.699 95.975 125.355 94.6 126.855 92.1C129.137 88.287 127.902 83.381 124.105 81.1L44.107 33.1C40.342 30.912 35.404 32.068 33.139 35.85C30.857 39.662 32.092 44.568 35.889 46.85L115.887 94.85Z"/></svg>
